X: 24
T: Man Of The House, The
Z: leprecawn
S: https://thesession.org/tunes/222#setting52416
R: reel
M: 4/4
L: 1/8
K: Emin
E2 BE GABG|E2 BE FDAD|E2 BE GABc|dBAG FDDF|
E2 BE GABG|E2 BE FDAD|E2 BE GABc|dBAG FDD2||
e2ge fgaf|gfed edBd|e2ge fgaf|gfed Be e2|
e2ge fgaf|gfed efga|bgaf gfed|edBA GEED||

